!!!OTL: Der deutsche Kanbe.
!!!OTL-incipit: ICH BIN EIN DEUTSCHER KNABE
!!!COM: F. A. Schulz
!!!ARE: Europa, Mitteleuropa, Deutschland
!!!SCT: F0373
!!!TXL: @@DE
!!!YEM: Copyright 1995, estate of Helmut Schaffrath.
**kern	**text
*ICvox	*
*M4/4	*
*met(c)	*
*k[b-e-]	*
*B-:	*
!LO:TX:a:t=Mäßig und kräftig.	!
!LO:TX:a:t=Zweistimmig.	!
{4f	1._Jch
=1	=1
4b-/	bin
4b-/	ein
4cc	deutſcher
4cc	.
=2	=2
(4.dd	Kna-
8cc)	.
4b-}	-be
{4f	und
=3	=3
4g	kann
(8ee-L	mich
8ccJ)	.
4b-/	deſ-
4a	-ſen
=4	=4
2b-/	freu'n.
4r}	.
{4dd	Ein
=5	=5
4.cc	deutſcher
8b-	.
4a	Mann
4b-/	iſt
=6	=6
(4.cc	red-
8dd)	.
4cc}	-lich,
{4b-	auch
=7	=7
4a	ich
4a	will
(8gL	red-
8f#J)	.
(8gL	-lich
8aJ)	.
=8	=8
2f	ſein.
4r}	.
{4f	Mein
=9	=9
4cc/	Wort
4cc	iſt
4dd	ſtels
4dd	der
=10	=10
4.ee-	Wahrheit
8dd	.
4cc}	treu,
{4cc	auf
=11	=11
4dd	daß
4dd	ich
4ee-	ʒu
4ee-	er-
=12	=12
4.ff	-ken-
8ee-	-nen
4dd}	ſei.
{4f	Jch
=13	=13
4dd	bin
4cc	ein
4b-/	deut-
4a	-ſcher
=14	=14
(4.g	Kna-
8b-/)	.
4f}	-be
{4b-/	und
=15	=15
4cc	haſ-
(8ee-L	-ſe
8ccJ)	.
4b-/	Heu-
4a	-che-
=16	=16
2b-	-lei.
4r}	.
==	==
!!!AGN: Jugend - Lied, patriotisch, national
!!!ONB: ESAC (Essen Associative Code) Database: FINK
!!!AMT: simple quadruple
!!!AIN: vox
!!!EED: Helmut Schaffrath
!!!EEV: 1.0
!!Text: L. Th. Lieth
!!!source: Musikalischer Hausschatz der Deutschen. Eine Sammlung von über 1000 Liedern und Gesängen mit Singstimmen und Klavierbegleitung. Leipzig, Litterarisches Verlags-Haus.
!!!page: 222
!!!ENC: Anna Maria Matuszewska
!!!EEV: 2025/03/14
*-	*-
